X:1
T:Christ ist erstanden
T:Seth Calvisius
T:Source : Harmonia-Cantionum Ecclesiasticarum---Leipzig---F.Schnelboltz---1597. Editor : André Vierendeels (06/12/14).
T:Christ ist erstanden
C:Seth Calvisius
%%score [ 1 2 3 4 ]
L:1/8
Q:1/4=120
M:2/2
K:C
V:1 treble nm="Cantus" snm="C"
V:2 treble nm="Tenor 1" snm="T 1"
V:3 treble-8 nm="Tenor 2" snm="T 2"
V:4 bass nm="Bassus" snm="B"
V:1
 A8 | G4 A4 | c4 d4 | A8 | A4 F4 | A4 F4 | E4 F4 | D4 A4 | G4 G4 | D4 C4 | F4 G4 | A8 | A4 F4 | %13
w: Christ|ist er-|stan- *|den|von der|mar- ter|al- *|ler, des|solln- wir|al- le|fro _|sein,|Christ wil|
 A4 F4 | E4 F4 | D4 E4- | E2 ^C2 D4 | D8 || A4 A4 | G4 A4 | c4 d4 | A4 z2 A2 | A4 F4 | A4 F4 | %24
w: un- ser|Trost _|sein. _|_ Ky- rio-|leis.|Wer er|nicht er-|stan- *|den, so|wer die|Welt ver-|
 E4 F4 | D8 | G4 G4 | D4 C4 | F4 G4 | A4 z2 A2 | A3 G F2 G2 | A4 F4 | E4 F4 | D4 E4- | E2 ^C2 D4 | %35
w: gan- *|gen,|sind das|er er-|stan- den|ist, so|lo- ben wir den|Herrn Je-|* sum|Christ.. _|_ Ky- rio-|
 D8 || A8 | G4 F4 | G4 _B4 | A4 c4 | A4 c4 | A4 G4 | F8 | A6 G2 | F4 D4 | E4 F4 | D4 F4 | G4 G4 | %48
w: leis.|Al-|le- *|lu- *|ia, al-|le- *|lu- *|ia,|al- *|le- *|lu- *|ia, des|solln wir|
 D4 C4 | F4 G4 | A8 | A4 F4 | A4 F4 | D4 E4 | D4 E4- | E2 C2 D4 | D8 |] %57
w: al- le|fro _|sein,|Christ wil|un- ser|Trost _|sein. _|_ Ky- rio-|leis.|
V:2
 e8 | e4 d4 | e4 f4 | e8 | e4 d4 | ^c4 d4- | d4 ^c4 | d4 d4 | d4 B4 | A4 A4 | d8 | ^c8 | f4 d4 | %13
w: Christ|ist er-|stan- *|den|von der|mar- ter|_ al-|ler, des|solln wir|al- le|fro|sein,|Christ wil|
 ^c4 d4- |"^#" d4 c4 | d4 ^c4- | c2 e2 d4 | d8 || e4 e4 | e4 c4 | e4 f4 | e4 z2 e2 | e4 d4 | %23
w: un- ser|_ Trost|sein. _|_ Ky- rio-|leis.|Wer er|nicht er-|stan- *|den, so|wer die|
 c4 d4- | d4 ^c4 | d8 | d4 B4 | A4 A4 | d4 d4 | ^c4 z2 e2 | e3 e c2 c2 | c4 d4 | ^c4 c4 | d4 ^c4- | %34
w: Welt ver-|* gan-|gen,|sind das|er er-|stan- den|ist, so|lo- ben wir den|Herrn Je-||Christ. _|
 c2 e2 d4 | d8 || e8 | e4 d4 | e4 g4 | f4 g4 | f4 e4 | f4 e4 | f8 | f6 e2 | d4 d4- | d4 ^c4 | %46
w: _ Ky- rio-|leis.|Al|le- *|lu- *|ia, al-|le- *|lu- *|ia,|al- *|le- lu-||
 d4 d4 | d4 B4 | A4 A4 | d8 | ^c8 | f4 d4 | c4 d4- | d4 ^c4 | d4 ^c4- | c2 e2 d4 | d8 |] %57
w: ia, des|solln wir|al- le|fro|sein,|Christ wil|_ ser|_ Trost|sein. _|_ Ky- rio-|leis.|
V:3
 A8 | B4 A4 | G4 d4 | ^c8 |"^-natural" c4 A4 | A4 A4 | A8 | A4 A4 | G4 G4 | F4 E4 | F4 D4 | E8 | %12
w: Christ|ist er-|stan- *|den|von der|mar- ter|al-|ler, des|solln wir|al- le|fro _|sein,|
 D4 A4 | A4 A4 | A8 | A4 A4- | A2 A2 A4 | A8 || A4 c4 | B4 A4 | G4 d4 | ^c4 =c4 | c4 A4 | A4 A4 | %24
w: Christ wil|un- ser|Trost|sein. Ky-|* ri- o-|leis.|Wer er|nicht er-|stan- *|den, so|wer die|Welt ver-|
 A8 | A8 | G4 G4 | F4 E4 | F4 D4 |"^-natural" E4 z2 c2 | c3 B A2 E2 | F4 A4 | A4 A4 | A4 A4- | %34
w: gan-|gen,|sind das|er er-|stan- den|ist, so|lo- ben wir den|Her- ren|Je- sum|Christ. Ky-|
 A2 A2 A4 | A8 || c8 | c4 A4 | c4 d4 | d4 e4 | A6 B2 | c4 c4 | c8 | c8 | A4 D4 | A8 | A4 A4 | %47
w: * ri- o-|leis.|Al|le- *|lu- *|ia, al-|le- *|* lu-|ia,|al-|le- *|lu-|ia, des|
 G4 G4 | F4 E4 | F4 D4 | E8 | D4 A4 | A4 A4 | A8 | A4 A4- | A2 A2 A4 | A8 |] %57
w: solln wir|al- le|fro _|sein,|Christ wil|un- ser|Trost|sein, Ky-|* ri- o-|leis.|
V:4
 A,8 | E,4 F,4 | E,4 D,4 | A,8 | A,,4 D,4 | A,,4 D,4 | A,,8 | D,4 D,4 | G,,4 G,,4 | D,4 A,,4 | %10
w: Christ|ist er-|stan- *|den|von der|mar- ter|al-|ler, des|solln wir|al- le|
 D,4 B,,4 | A,,8 | D,4 D,4 | A,,4 D,4 | A,,8 | D,4 A,,4- | A,,2 A,,2 D,4 | D,8 || A,4 A,4 | %19
w: fro _|sein,|Christ wil|un- ser|Trost|sein. Ky-|* ri- o-|leis.|Wer er|
 E,4 F,4 | E,4 D,4 | A,4 z2 A,,2 | A,,4 D,4 | A,,4 D,4 | A,,8 | D,8 | G,,4 G,,4 | D,4 A,,4 | %28
w: nicht er-|stan- *|den, so|wer die|Welt ver-|gan-|gen.|sind das|er er-|
 D,4 B,,4 | A,,4 z2 A,2 | A,3 E, F,2 C,2 | F,4 D,4 | A,,4 A,,4 | D,4 A,,4- | A,,2 A,,2 D,4 | D,8 || %36
w: stan- den|ist, so|lo- ben wir den|Her- ren|Je- sum|Christ. Ky-|* ri- o-|leis.|
 A,,8 | C,4 D,4 | C,4 G,4 | D,4 C,4 | D,4 C,4 | F,4 C,4 | F,,8 | F,6 C,2 | D,4 _B,,4 | A,,8 | %46
w: Al-|le- *|lu- *|ia, al-|le- *|* lu-|ia,|al- *|le- *|lu-|
 D,4 D,4 | G,,4 G,,4 | D,4 A,,4 | D,4 B,,4 | A,,8 | D,4 D,4 | A,,4 D,4 | A,,8 | D,4 A,,4- | %55
w: ia, des|solln wir|al- le|fro _|sein,|Christ wil|un- ser|Trost|sein. Ky-|
 A,,2 A,,2 D,4 | D,8 |] %57
w: * ri- o-|leis.|

